X:55
T: Wilhelmus van Nassouwe
N: A0409A
O: Europa, Mitteleuropa, Deutschland
N: 1607
R: Romanze, Ballade, Lied, Kriegslied
M: 4/4
L: 1/8
K: C
G,2 | C2C2D2D2 | E2DEF2E2 | D2D2C2
G,2 | C2C2D2D2 | E2DEF2E2 | D2D2C4
z2G2G2G2 | G2FE2DE2 | F2E2D2C2 | D4z2
E2 | C4E2D2- | D2C2B,2A,G, | A,2C2C2B,2 | C6

